dist/img/svg/cart-ico.svg

<svg width="30" height="27" viewBox="0 0 30 27" fill="none" xmlns="http://www.w3.org/2000/svg">
<path d="M24.6162 18.6628H12.1285C11.0967 18.6628 10.2104 18.0073 9.90613 17.0373L5.54074 3.08974C5.52751 3.06352 5.50106 3.0373 5.4746 3.0373H1.20181C0.580074 3.0373 0.0773926 2.53917 0.0773926 1.92307C0.0773926 1.30697 0.580074 0.808838 1.20181 0.808838H5.4746C6.50642 0.808838 7.39272 1.46427 7.69698 2.43431L12.0624 16.3819C12.0756 16.4081 12.1021 16.4343 12.1285 16.4343H24.6162C24.6426 16.4343 24.6823 16.4081 24.6823 16.3819L27.7381 7.50734C27.7381 7.49423 27.7513 7.46801 27.7249 7.4418C27.6984 7.41558 27.6719 7.41558 27.6587 7.41558H15.7531C15.1314 7.41558 14.6287 6.91745 14.6287 6.30135C14.6287 5.68524 15.1314 5.18711 15.7531 5.18711H27.6587C28.4127 5.18711 29.1138 5.54105 29.5504 6.15715C29.9869 6.77326 30.106 7.54666 29.8546 8.24142L26.7989 17.116C26.4946 18.0336 25.6083 18.6628 24.6162 18.6628Z" fill="#3F3F41"/>
<path d="M10.5939 26.9869C11.9235 26.9869 13.0014 25.9187 13.0014 24.6011C13.0014 23.2835 11.9235 22.2153 10.5939 22.2153C9.26419 22.2153 8.18628 23.2835 8.18628 24.6011C8.18628 25.9187 9.26419 26.9869 10.5939 26.9869Z" fill="#3F3F41"/>
<path d="M25.767 26.9869C27.0966 26.9869 28.1745 25.9187 28.1745 24.6011C28.1745 23.2835 27.0966 22.2153 25.767 22.2153C24.4373 22.2153 23.3594 23.2835 23.3594 24.6011C23.3594 25.9187 24.4373 26.9869 25.767 26.9869Z" fill="#3F3F41"/>
</svg>

<svg width="30" height="27" viewBox="0 0 30 27" fill="none" xmlns="http://www.w3.org/2000/svg"><path d="M24.616 18.663H12.13a2.312 2.312 0 0 1-2.223-1.626L5.541 3.09c-.013-.026-.04-.053-.066-.053H1.202A1.118 1.118 0 0 1 .077 1.923C.077 1.307.58.81 1.202.81h4.273c1.031 0 1.918.655 2.222 1.625l4.365 13.948c.014.026.04.052.067.052h12.487c.027 0 .066-.026.066-.052l3.056-8.875c0-.013.013-.039-.013-.065-.027-.026-.053-.026-.066-.026H15.753A1.118 1.118 0 0 1 14.63 6.3c0-.616.502-1.114 1.124-1.114H27.66c.754 0 1.455.354 1.891.97.437.616.556 1.39.305 2.084L26.8 17.115c-.304.918-1.19 1.547-2.183 1.547zm-14.022 8.324A2.397 2.397 0 0 0 13 24.6a2.397 2.397 0 0 0-2.407-2.386A2.397 2.397 0 0 0 8.185 24.6a2.397 2.397 0 0 0 2.408 2.386zm15.173 0a2.397 2.397 0 0 0 2.407-2.386 2.397 2.397 0 0 0-2.407-2.386 2.397 2.397 0 0 0-2.408 2.386 2.397 2.397 0 0 0 2.408 2.386z" fill="#3F3F41"/></svg>
